X: 9
T: Missa Caput / Gloria
N: Derived from Ock1003b-Missa_Caput-Gloria.krn
C: Johannes Ockeghem
%%abc-version 2.0
%%abcx-abcm2ps-target-version 5.9.1 (29 Sep 2008)
%%abc-creator hum2abc beta
%%abcx-conversion-date 2019/02/17 07:26:13
%%abc-edited-by Jesse Rodin
%%abc-edited-by Will Watson 24/2/2012
%%abcx-initial-encoding-date 2012/02/24/
%%humdrum-veritas 1507418481
%%humdrum-veritas-data 2275940941
%%linebreak <none>
%%barnumbers 0
L: 1/4
M: 3/1
Q: 1/2=120
%%staves [1 2 3 4]
V: 1 clef=treble
V: 2 clef=treble-8
V: 3 clef=treble-8
V: 4 clef=bass
K: C
[V:1] A12 | 
[V:2] A12 | 
[V:3] z12 | 
[V:4] z12 | 
[V:1] G4F6ED | 
[V:2] c4d6cd | 
[V:3] z12 | 
[V:4] z12 | 
[V:1] C4G2A2B2AB | 
[V:2] e6c2d4 | 
[V:3] z12 | 
[V:4] z12 | 
[V:1] c4B2A4G2 | 
[V:2] c4d4e4 | 
[V:3] z12 | 
[V:4] z12 | 
[V:1] A4F3GA2D2- | 
[V:2] f2d4B2c2d2 | 
[V:3] z12 | 
[V:4] z12 | 
[V:1] D2C2F2E2D2G2 | 
[V:2] e4d2c2B4 | 
[V:3] z12 | 
[V:4] z12 | 
[V:1] FGA2D2F2E4 | 
[V:2] A4d2d4^c2 | 
[V:3] z12 | 
[V:4] z12 | 
[V:1] !fermata!D12 | 
[V:2] !fermata!d12 | 
[V:3] z12 | 
[V:4] z12 | 
[V:1] A12 | 
[V:2] f12 | 
[V:3] z12 | 
[V:4] z12 | 
[V:1] G4F6E2 | 
[V:2] e4d6c2 | 
[V:3] z12 | 
[V:4] z12 | 
[V:1] E6A4G2 | 
[V:2] c12- | 
[V:3] z12 | 
[V:4] z12 | 
[V:1] E3FG2C4B,2 | 
[V:2] c8d4 | 
[V:3] z12 | 
[V:4] z12 | 
[V:1] C2c2B2A4d2 | 
[V:2] e4d2c2B4 | 
[V:3] z12 | 
[V:4] z12 | 
[V:1] c2B4A2G2c2- | 
[V:2] z2e2d2f2e4- | 
[V:3] z12 | 
[V:4] z12 | 
[V:1] c2B4A4^G2 | 
[V:2] e2d4c2B4 | 
[V:3] z12 | 
[V:4] z12 | 
[V:1] A12 | 
[V:2] A6B2c4 | 
[V:3] z12 | 
[V:4] z12 | 
[V:1] z12 | 
[V:2] d12 | 
[V:3] B6A2G4 | 
[V:4] B,,12- | 
[V:1] D12 | 
[V:2] B6G2^F4 | 
[V:3] ^F4B8 | 
[V:4] B,,12 | 
[V:1] F6D2F3G | 
[V:2] z4d8 | 
[V:3] A12 | 
[V:4] D,12- | 
[V:1] A6F4EF | 
[V:2] d4A4d4 | 
[V:3] D4F8 | 
[V:4] D,12 | 
[V:1] G6E2E2C2 | 
[V:2] e6c2c4 | 
[V:3] E6F2G4- | 
[V:4] C,12- | 
[V:1] C4z4G2A2 | 
[V:2] z4e8 | 
[V:3] G2A4F2E4 | 
[V:4] C,12 | 
[V:1] _B4A2A4F2 | 
[V:2] f8d4 | 
[V:3] z4z4A4 | 
[V:4] D,12 | 
[V:1] E4D8 | 
[V:2] c4z4d4 | 
[V:3] A4B6G2 | 
[V:4] z4z4B,,4 | 
[V:1] G4z4G4- | 
[V:2] B4e6d2 | 
[V:3] G4A2G2c4 | 
[V:4] E,12 | 
[V:1] G2B4A2A4 | 
[V:2] d8f4 | 
[V:3] B6d6 | 
[V:4] G,8D,4 | 
[V:1] G6F2F4 | 
[V:2] e4d8 | 
[V:3] G2A2B4A4 | 
[V:4] E,4B,,4D,4 | 
[V:1] D2F3GA2z2D2 | 
[V:2] f3ga4d2f2 | 
[V:3] A8z4 | 
[V:4] D,12 | 
[V:1] E2DEF2D4^C2 | 
[V:2] e2a4f2e4 | 
[V:3] z12 | 
[V:4] C,4A,,8 | 
[V:1] D12 | 
[V:2] d6B3cd2 | 
[V:3] z12 | 
[V:4] z4z4B,,4 | 
[V:1] z12 | 
[V:2] A4z4z4 | 
[V:3] D6F6 | 
[V:4] D,12- | 
[V:1] z12 | 
[V:2] z12 | 
[V:3] D2A4F2E4 | 
[V:4] D,8C,4 | 
[V:1] A12- | 
[V:2] z12 | 
[V:3] D12 | 
[V:4] D,12- | 
[V:1] A8G4 | 
[V:2] A8B4 | 
[V:3] z4d8 | 
[V:4] D,8B,,4 | 
[V:1] F4E8 | 
[V:2] d4A4G4- | 
[V:3] d4c8 | 
[V:4] z4z4E,4 | 
[V:1] D8z4 | 
[V:2] G4d4d4- | 
[V:3] _B8A4- | 
[V:4] G,8D,4- | 
[V:1] F4G3AB4 | 
[V:2] d4B3cd4- | 
[V:3] A4G8 | 
[V:4] D,4E,4B,,4 | 
[V:1] A2A4F2F2E2 | 
[V:2] d4d2c2A4 | 
[V:3] F3GA2A4F2 | 
[V:4] D,8D,4 | 
[V:1] G4A2c4B2 | 
[V:2] z4c8 | 
[V:3] E8A4- | 
[V:4] C,4A,,8 | 
[V:1] A2F2E2F3EED | 
[V:2] c4B8 | 
[V:3] A4G8 | 
[V:4] z4z4B,,4 | 
[V:1] F8z4 | 
[V:2] A4d8 | 
[V:3] F6G2A4 | 
[V:4] D,12- | 
[V:1] F4E3FG2A2 | 
[V:2] d4G4c4 | 
[V:3] B4c3de4 | 
[V:4] D,4C,8 | 
[V:1] B4A4z4 | 
[V:2] z4f8 | 
[V:3] d4c2B4A2 | 
[V:4] D,12- | 
[V:1] A4B4d4 | 
[V:2] f4d8 | 
[V:3] A6G4FG | 
[V:4] D,4B,,8 | 
[V:1] c4A2A4F2 | 
[V:2] e6c2c4 | 
[V:3] A12- | 
[V:4] A,,12- | 
[V:1] E8A4 | 
[V:2] z2c4d2e3c | 
[V:3] A12 | 
[V:4] A,,12 | 
[V:1] G2FGA2F2E4 | 
[V:2] e4f2d4c2 | 
[V:3] z12 | 
[V:4] z12 | 
[V:1] D12 | 
[V:2] f4g2a4d2- | 
[V:3] z12 | 
[V:4] z4z4D,4 | 
[V:1] F12 | 
[V:2] d2B2A8 | 
[V:3] z4z4d4 | 
[V:4] D,12 | 
[V:1] G4A4c4 | 
[V:2] G4D4z4 | 
[V:3] c2Bcd2c2A4 | 
[V:4] E,4F,8 | 
[V:1] B8A4 | 
[V:2] d12 | 
[V:3] G8F4 | 
[V:4] G,8D,4 | 
[V:1] G4F2A4F2 | 
[V:2] B4A8 | 
[V:3] G4D8 | 
[V:4] E,4F,8 | 
[V:1] E4D8 | 
[V:2] B8A4 | 
[V:3] z12 | 
[V:4] G,8D,4 | 
[V:1] z12 | 
[V:2] G4d8 | 
[V:3] d4B2G2A4 | 
[V:4] G,8D,4 | 
[V:1] z12 | 
[V:2] B4c2d2e4 | 
[V:3] G6A3GE2 | 
[V:4] E,4C,8 | 
[V:1] z12 | 
[V:2] A6d4c2 | 
[V:3] F2D2F3GE3C | 
[V:4] D,8E,4 | 
[V:1] z12 | 
[V:2] A2GAB2G4FG | 
[V:3] E2G4F2D4 | 
[V:4] C,4B,,8 | 
[V:1] z12 | 
[V:2] A6c4d2 | 
[V:3] E8A2B2 | 
[V:4] A,,12- | 
[V:1] z4z4A2B2 | 
[V:2] e4f4e4 | 
[V:3] c6A2c2d2 | 
[V:4] A,,12 | 
[V:1] c6A4F2 | 
[V:2] A4z4z4 | 
[V:3] e4A4d4 | 
[V:4] z12 | 
[V:1] E2F2G2D2E4 | 
[V:2] z12 | 
[V:3] c2d2e2d4^c2 | 
[V:4] z12 | 
[V:1] D8z4 | 
[V:2] a12 | 
[V:3] d8A4 | 
[V:4] z4z4D,4 | 
[V:1] z12 | 
[V:2] f12 | 
[V:3] d8B4 | 
[V:4] D,12 | 
[V:1] z12 | 
[V:2] e4d2c2A4 | 
[V:3] G4A2G2c4 | 
[V:4] E,4F,8 | 
[V:1] B8A4 | 
[V:2] G2g4e2f4 | 
[V:3] z4d8 | 
[V:4] G,8D,4 | 
[V:1] G4c6A2 | 
[V:2] g4a6d2 | 
[V:3] B4A8 | 
[V:4] E,4F,8 | 
[V:1] B4d6c2 | 
[V:2] d8z4 | 
[V:3] G8d4 | 
[V:4] G,8D,4- | 
[V:1] A4B6G2 | 
[V:2] z4g8 | 
[V:3] d12- | 
[V:4] D,4G,8 | 
[V:1] A4G4E4 | 
[V:2] f4e4g4 | 
[V:3] d4B4c4 | 
[V:4] D,4E,4C,4 | 
[V:1] z4A4G4- | 
[V:2] f2d4B2c2Bc | 
[V:3] A4F4E4 | 
[V:4] D,8E,4 | 
[V:1] G4c8 | 
[V:2] d4c4A4 | 
[V:3] D2G4E2F4 | 
[V:4] B,,4A,,8 | 
[V:1] B4G2B3cd2- | 
[V:2] z2d4B2B4- | 
[V:3] G4B3cd4 | 
[V:4] G,,12- | 
[V:1] d2G3Ac2d2B2 | 
[V:2] B2G2G8 | 
[V:3] G4d8 | 
[V:4] G,,12 | 
[V:1] c8A4 | 
[V:2] g6a4g2 | 
[V:3] c12- | 
[V:4] z4z4A,,4 | 
[V:1] G4A2c4BA | 
[V:2] e12- | 
[V:3] c12 | 
[V:4] C,12 | 
[V:1] G4F6E2 | 
[V:2] e4d8 | 
[V:3] c4A2B4A2 | 
[V:4] C,4D,8 | 
[V:1] E4C4c4 | 
[V:2] z4g8 | 
[V:3] c12- | 
[V:4] C,12 | 
[V:1] B2A4G2G2E2 | 
[V:2] e6d4c2 | 
[V:3] c4B8 | 
[V:4] z12 | 
[V:1] F4A8 | 
[V:2] d8f4 | 
[V:3] A4z4A4 | 
[V:4] D,12 | 
[V:1] A4G8 | 
[V:2] e4c6A2 | 
[V:3] c3de8 | 
[V:4] C,12 | 
[V:1] F6D2D4 | 
[V:2] A8d4 | 
[V:3] d6c2A4 | 
[V:4] D,12 | 
[V:1] z12 | 
[V:2] c4B8- | 
[V:3] G2G4F2E4 | 
[V:4] E,12 | 
[V:1] d12- | 
[V:2] B12 | 
[V:3] D4G8 | 
[V:4] B,,8G,,4- | 
[V:1] d4c6BA | 
[V:2] G4c2d2e4 | 
[V:3] B4A4c4 | 
[V:4] G,,4A,,8 | 
[V:1] G4A8 | 
[V:2] z2d2c2c4Bc | 
[V:3] d4e8 | 
[V:4] B,,4A,,8 | 
[V:1] B6G2G3F | 
[V:2] d4G4B4- | 
[V:3] z4d8- | 
[V:4] G,,12 | 
[V:1] D4z4^F4 | 
[V:2] B4d2e2d2B2- | 
[V:3] d4B2c2d4- | 
[V:4] B,,6A,,2B,,4 | 
[V:1] G4E2A4^F2 | 
[V:2] B4A2^F3E^F2 | 
[V:3] d4c6A2 | 
[V:4] G,,4A,,8 | 
[V:1] E4D8 | 
[V:2] G8B3G | 
[V:3] B4G2B3cd2- | 
[V:4] G,,12- | 
[V:1] G4z2G3FD2- | 
[V:2] B2d4G3AB2- | 
[V:3] d2G4E2D2G2- | 
[V:4] G,,12 | 
[V:1] D2E4D4^C2 | 
[V:2] BAB2c2A4G2 | 
[V:3] GFG2A2D2E4 | 
[V:4] z12 | 
[V:1] D12- | 
[V:2] A12- | 
[V:3] D12- | 
[V:4] z4z4D,4 | 
[V:1] D12 ||  
[V:2] A12 ||  
[V:3] D12 ||  
[V:4] D,12 ||  
[V:1] [M:2/1]D8- | 
[V:2] [M:2/1]d8 | 
[V:3] [M:2/1]z8 | 
[V:4] [M:2/1]z8 | 
[V:1] D8 | 
[V:2] B8 | 
[V:3] z8 | 
[V:4] z8 | 
[V:1] E8 | 
[V:2] c8 | 
[V:3] z8 | 
[V:4] z8 | 
[V:1] D8 | 
[V:2] z4d4 | 
[V:3] z8 | 
[V:4] z8 | 
[V:1] A4A4- | 
[V:2] d8 | 
[V:3] z8 | 
[V:4] z8 | 
[V:1] A2B2d4 | 
[V:2] f8 | 
[V:3] z8 | 
[V:4] z8 | 
[V:1] c4B4- | 
[V:2] e4d4 | 
[V:3] z8 | 
[V:4] z8 | 
[V:1] B2A2A4- | 
[V:2] c8 | 
[V:3] z8 | 
[V:4] z8 | 
[V:1] A4G4 | 
[V:2] d4e4 | 
[V:3] z8 | 
[V:4] z8 | 
[V:1] A6GF | 
[V:2] f6ed | 
[V:3] z8 | 
[V:4] z8 | 
[V:1] E4E4 | 
[V:2] c6d2 | 
[V:3] z8 | 
[V:4] z8 | 
[V:1] E4E4 | 
[V:2] e4A4 | 
[V:3] z8 | 
[V:4] z8 | 
[V:1] G4G4 | 
[V:2] B8 | 
[V:3] z8 | 
[V:4] z8 | 
[V:1] ^C8 | 
[V:2] z4A4 | 
[V:3] z8 | 
[V:4] z8 | 
[V:1] z4F4- | 
[V:2] d4d4 | 
[V:3] z8 | 
[V:4] z8 | 
[V:1] F2D2E4 | 
[V:2] B4c4 | 
[V:3] z8 | 
[V:4] z8 | 
[V:1] D4A4- | 
[V:2] d4d4 | 
[V:3] z8 | 
[V:4] z8 | 
[V:1] A4G4 | 
[V:2] f4e4 | 
[V:3] z8 | 
[V:4] z8 | 
[V:1] F4E4- | 
[V:2] d4z4 | 
[V:3] z8 | 
[V:4] z8 | 
[V:1] E4D4- | 
[V:2] g4f3g | 
[V:3] z8 | 
[V:4] z8 | 
[V:1] D4A2B2 | 
[V:2] _b2a4g2 | 
[V:3] z8 | 
[V:4] z8 | 
[V:1] c2d4c2 | 
[V:2] f2d2e4 | 
[V:3] z8 | 
[V:4] z8 | 
[V:1] d2B4A2- | 
[V:2] d6c2 | 
[V:3] z8 | 
[V:4] z8 | 
[V:1] A2G2A4 | 
[V:2] B4A2d2- | 
[V:3] z8 | 
[V:4] z8 | 
[V:1] B2c4A2 | 
[V:2] d2c3df2 | 
[V:3] z8 | 
[V:4] z8 | 
[V:1] G6FE | 
[V:2] e6dc | 
[V:3] z8 | 
[V:4] z8 | 
[V:1] D8 | 
[V:2] B6c2 | 
[V:3] z8 | 
[V:4] B,,8- | 
[V:1] z4G4 | 
[V:2] d8 | 
[V:3] z8 | 
[V:4] B,,8 | 
[V:1] F4A4- | 
[V:2] z4A4- | 
[V:3] A8 | 
[V:4] D,8- | 
[V:1] A4D4 | 
[V:2] A4B4 | 
[V:3] D4F4 | 
[V:4] D,8 | 
[V:1] E4G4 | 
[V:2] c8 | 
[V:3] E8 | 
[V:4] C,8 | 
[V:1] F8 | 
[V:2] z4A4 | 
[V:3] z4D4- | 
[V:4] D,8 | 
[V:1] D8 | 
[V:2] B8 | 
[V:3] D4G4 | 
[V:4] B,,8 | 
[V:1] F4E4 | 
[V:2] A4G4 | 
[V:3] A4c4 | 
[V:4] z4E,4 | 
[V:1] D4G4- | 
[V:2] z4d4- | 
[V:3] B4G4 | 
[V:4] G,8 | 
[V:1] G2E2F4 | 
[V:2] d4f4 | 
[V:3] A8 | 
[V:4] D,8 | 
[V:1] G6A2 | 
[V:2] e4d4 | 
[V:3] G8 | 
[V:4] E,4B,,4 | 
[V:1] B4A4- | 
[V:2] d4d4 | 
[V:3] z8 | 
[V:4] D,8- | 
[V:1] A2F4D2 | 
[V:2] d4f4 | 
[V:3] B8 | 
[V:4] D,8 | 
[V:1] E8 | 
[V:2] e4c4 | 
[V:3] c8 | 
[V:4] C,4A,,4 | 
[V:1] D8 | 
[V:2] z4d4 | 
[V:3] d8 | 
[V:4] B,,4D,4- | 
[V:1] z8 | 
[V:2] A8 | 
[V:3] e8 | 
[V:4] D,4^C,4 | 
[V:1] A8 | 
[V:2] z4A4- | 
[V:3] d8- | 
[V:4] D,8- | 
[V:1] F4G4- | 
[V:2] A4B4 | 
[V:3] d8 | 
[V:4] D,4B,,4 | 
[V:1] G4E4 | 
[V:2] G8 | 
[V:3] B8 | 
[V:4] z4E,4 | 
[V:1] D8 | 
[V:2] B4d4- | 
[V:3] z4B4 | 
[V:4] G,8 | 
[V:1] z4F4- | 
[V:2] d2c2A4 | 
[V:3] d6c2 | 
[V:4] G,4D,4- | 
[V:1] F4E4 | 
[V:2] F4G4- | 
[V:3] A4G4 | 
[V:4] D,4E,4 | 
[V:1] D8 | 
[V:2] G4F4 | 
[V:3] B8 | 
[V:4] B,,4D,4- | 
[V:1] F8 | 
[V:2] A4B4 | 
[V:3] A4F4 | 
[V:4] D,8 | 
[V:1] E8 | 
[V:2] c8 | 
[V:3] G4A4 | 
[V:4] C,4A,,4 | 
[V:1] z8 | 
[V:2] d8 | 
[V:3] D4F4 | 
[V:4] B,,4D,4- | 
[V:1] A8- | 
[V:2] z4e4 | 
[V:3] E8 | 
[V:4] D,4^C,4 | 
[V:1] A8 | 
[V:2] f8 | 
[V:3] z4A4- | 
[V:4] D,8- | 
[V:1] F8 | 
[V:2] d4A4 | 
[V:3] A4F4 | 
[V:4] D,8 | 
[V:1] G8 | 
[V:2] d4d4- | 
[V:3] D8 | 
[V:4] B,,8 | 
[V:1] A8 | 
[V:2] d2B2^c4 | 
[V:3] E8 | 
[V:4] A,,8 | 
[V:1] A4F4- | 
[V:2] d6cB | 
[V:3] z4D4 | 
[V:4] D,8 | 
[V:1] F4D4 | 
[V:2] A8- | 
[V:3] D8 | 
[V:4] z4D,4 | 
[V:1] F8 | 
[V:2] A8 | 
[V:3] d8 | 
[V:4] D,8 | 
[V:1] G4F4 | 
[V:2] z8 | 
[V:3] c6d2 | 
[V:4] E,4F,4 | 
[V:1] E4G4- | 
[V:2] B8- | 
[V:3] e4d4- | 
[V:4] G,8- | 
[V:1] G4F4 | 
[V:2] B4A4 | 
[V:3] d8 | 
[V:4] G,4D,4 | 
[V:1] G4E4 | 
[V:2] c8 | 
[V:3] G4A4 | 
[V:4] E,4F,4 | 
[V:1] D8 | 
[V:2] z4B4 | 
[V:3] B6c2 | 
[V:4] G,8 | 
[V:1] z8 | 
[V:2] A4B4- | 
[V:3] d8- | 
[V:4] D,4G,4- | 
[V:1] G4A4 | 
[V:2] B2A2A4 | 
[V:3] d8 | 
[V:4] G,4D,4 | 
[V:1] G4E4 | 
[V:2] z8 | 
[V:3] B4c4 | 
[V:4] E,4C,4 | 
[V:1] F8 | 
[V:2] d8 | 
[V:3] A8 | 
[V:4] D,8 | 
[V:1] G4E4 | 
[V:2] B4c4 | 
[V:3] G8 | 
[V:4] E,4C,4 | 
[V:1] D8 | 
[V:2] d8 | 
[V:3] z4d4- | 
[V:4] B,,8 | 
[V:1] A4c4 | 
[V:2] e8 | 
[V:3] d4c4 | 
[V:4] A,,8 | 
[V:1] B4A4 | 
[V:2] f8- | 
[V:3] d8 | 
[V:4] z4D,4 | 
[V:1] B2d4c2 | 
[V:2] f4d4 | 
[V:3] z4d4- | 
[V:4] D,8- | 
[V:1] B2A2A4- | 
[V:2] f8 | 
[V:3] d4c4 | 
[V:4] D,8 | 
[V:1] A2F2G4 | 
[V:2] e8 | 
[V:3] B8 | 
[V:4] E,8 | 
[V:1] A4c4 | 
[V:2] c8 | 
[V:3] A8 | 
[V:4] F,8 | 
[V:1] B8 | 
[V:2] e4d2B2- | 
[V:3] z8 | 
[V:4] G,8- | 
[V:1] z4A4 | 
[V:2] B2G2A4 | 
[V:3] d8 | 
[V:4] G,4D,4 | 
[V:1] G2G4F2 | 
[V:2] c6BA | 
[V:3] G4A4 | 
[V:4] E,4F,4 | 
[V:1] E4D4- | 
[V:2] G4z4 | 
[V:3] B8- | 
[V:4] G,4D,4 | 
[V:1] D4D4 | 
[V:2] d4d4- | 
[V:3] B8 | 
[V:4] G,8 | 
[V:1] F4E4 | 
[V:2] d4B4 | 
[V:3] A4G4- | 
[V:4] D,4E,4 | 
[V:1] G6F2 | 
[V:2] c4G4 | 
[V:3] G4c4 | 
[V:4] C,8 | 
[V:1] D4F4 | 
[V:2] z4d4 | 
[V:3] B4A4- | 
[V:4] D,8 | 
[V:1] E8 | 
[V:2] c4B4 | 
[V:3] A4G4 | 
[V:4] E,8 | 
[V:1] D4G4- | 
[V:2] d4d4- | 
[V:3] B8 | 
[V:4] B,,4G,,4 | 
[V:1] G2E2^F4 | 
[V:2] d2B2c4 | 
[V:3] A8 | 
[V:4] A,,8 | 
[V:1] G8 | 
[V:2] d4e4 | 
[V:3] G8- | 
[V:4] z4C,4 | 
[V:1] z4G4 | 
[V:2] c4c4- | 
[V:3] G8 | 
[V:4] C,8 | 
[V:1] F4A4- | 
[V:2] c4A2B2 | 
[V:3] z4F4 | 
[V:4] D,8 | 
[V:1] A2G2E4 | 
[V:2] c8 | 
[V:3] E4A4- | 
[V:4] C,8 | 
[V:1] F8 | 
[V:2] A4d4 | 
[V:3] A4F4 | 
[V:4] D,8 | 
[V:1] z4G4 | 
[V:2] e4c4 | 
[V:3] E8 | 
[V:4] C,8 | 
[V:1] F4D4- | 
[V:2] z4f4 | 
[V:3] D8 | 
[V:4] D,8 | 
[V:1] D2B,2C4 | 
[V:2] e8 | 
[V:3] z8 | 
[V:4] E,8 | 
[V:1] D8 | 
[V:2] d4B4 | 
[V:3] D8 | 
[V:4] B,,4G,,4 | 
[V:1] z4E4- | 
[V:2] c8- | 
[V:3] C8 | 
[V:4] A,,8 | 
[V:1] E4C4 | 
[V:2] c8 | 
[V:3] G8 | 
[V:4] z4C,4 | 
[V:1] E6G2 | 
[V:2] G8 | 
[V:3] z4c4- | 
[V:4] C,8 | 
[V:1] F4D4 | 
[V:2] z4F4 | 
[V:3] c4B4 | 
[V:4] D,8 | 
[V:1] E8 | 
[V:2] G8 | 
[V:3] c8 | 
[V:4] C,8 | 
[V:1] F8 | 
[V:2] F8 | 
[V:3] A4A4- | 
[V:4] D,8 | 
[V:1] E8 | 
[V:2] c8 | 
[V:3] A4G4 | 
[V:4] C,8 | 
[V:1] z4A4- | 
[V:2] A4d4- | 
[V:3] F8 | 
[V:4] D,8 | 
[V:1] A4G4 | 
[V:2] d4c4 | 
[V:3] E8 | 
[V:4] E,8 | 
[V:1] G6F2 | 
[V:2] d4B4 | 
[V:3] D8 | 
[V:4] B,,4G,,4 | 
[V:1] E8 | 
[V:2] c4A4- | 
[V:3] z4C4 | 
[V:4] A,,8 | 
[V:1] z4D4- | 
[V:2] A4G4 | 
[V:3] D8 | 
[V:4] B,,8 | 
[V:1] D4C4 | 
[V:2] A8 | 
[V:3] E8 | 
[V:4] A,,8 | 
[V:1] D4G4- | 
[V:2] B8 | 
[V:3] z4D4- | 
[V:4] G,,8 | 
[V:1] G2FGA4 | 
[V:2] d4c4 | 
[V:3] D4E4 | 
[V:4] B,,4A,,4 | 
[V:1] G4B4 | 
[V:2] d8 | 
[V:3] D4G4- | 
[V:4] B,,4G,,4 | 
[V:1] A8 | 
[V:2] c8 | 
[V:3] G4^F4 | 
[V:4] A,,8 | 
[V:1] z4G4- | 
[V:2] B6c2 | 
[V:3] G6A2 | 
[V:4] G,,8- | 
[V:1] G2F2D4 | 
[V:2] d4G4 | 
[V:3] _B8 | 
[V:4] G,,8 | 
[V:1] F2A4G2 | 
[V:2] c8 | 
[V:3] A4A4- | 
[V:4] z8 | 
[V:1] F2D2E4 | 
[V:2] c4B4 | 
[V:3] A4G4 | 
[V:4] z8 | 
[V:1] A,4B,2D2- | 
[V:2] c2d4A2- | 
[V:3] F4D4 | 
[V:4] z8 | 
[V:1] D2^C2C2B,2 | 
[V:2] A2G2G2F2 | 
[V:3] E8 | 
[V:4] z8 | 
[V:1] D8- | 
[V:2] A8- | 
[V:3] D8- | 
[V:4] D,8 | 
[V:1] D8 |]  
[V:2] A8 |]  
[V:3] D8 |]  
[V:4] D,8 |]  



